X:309
T:Kelly of Killane 
C:Joe Buchanan's Scottish Tome - Page 068.1
I:068 1
C:P. J. McCall
R:March
Z:Carl Allison
L:1/4
M:2/4
K:Dmaj
(DF) | "D"A2 FA | "G"d2 cB | "D"A2 FD | "G"B,2 DE |
"D"F2 (EF) | "A7"AG EC | "D"D4- | "D"D2 :|
AA | "G"B2 GB | "G"d2 cB | "D"A2 "G"dB | "D"A2 "E7"AA |
"G"B2 GB | "E7"d2 cB | "A7"A4- | "A7"A2 D F |
"D"A2 FA | "G"d2 cB | "D"A2 FD | "G"B,2 DE |
"D"F2 (EF) | "A7"AG EC | "D"D4- | "D"D2 |]

